svg/square_root.svg

<svg xmlns="http://www.w3.org/2000/svg" viewBox="0 0 24 24"><path d="M11.76 16.83 14.59 14l-2.83-2.83 1.41-1.41L16 12.59l2.83-2.83 1.41 1.41L17.41 14l2.83 2.83-1.41 1.41L16 15.41l-2.83 2.83zM2 11h3l2.29 5.4L10 6h12v2H11.55L8.68 19H6.22l-2.54-6H2z"/></svg>

<?xml version="1.0" encoding="UTF-8"?><!DOCTYPE svg PUBLIC "-//W3C//DTD SVG 1.1//EN" "http://www.w3.org/Graphics/SVG/1.1/DTD/svg11.dtd"><svg xmlns="http://www.w3.org/2000/svg" xmlns:xlink="http://www.w3.org/1999/xlink" version="1.1" id="mdi-square-root" width="24" height="24" viewBox="0 0 24 24"><path d="M11.76,16.83L14.59,14L11.76,11.17L13.17,9.76L16,12.59L18.83,9.76L20.24,11.17L17.41,14L20.24,16.83L18.83,18.24L16,15.41L13.17,18.24L11.76,16.83M2,11H5V11H5L7.29,16.4L10,6H22V8H11.55L8.68,19H6.22L3.68,13H2V11Z" /></svg>
